X: 101
Q: "slow"
M: C
L: 1/8
K: D
V: 1
|: c>d |\
e>de>f Te2d>e | (f/e/d) (c/d/B) T^A2B>c | d>cd>e {d}c3B | B3c B2(B/c/d) |
V: 2 clef=bass middle=d
z2 |\
d3"6"c d2zd | "6"f>df>g "6"f2F2 | G2zg "6"f3"6"b | "4"a2"3"ab ag"6"f"6"e |\
d3c
d2zd | "6"f>df>g "6"f2F2 | G2g2 "6;4"a2"5;3"A2 | d2A2D2 :|\
|: z2 |\
d2z2 d2g2 | "6"f2zF G2"6 5;4 3"A2 | B2"6"f>g "4"a2"3"A2 | d2A2 D2 :|

